source/svg/icons/heart.svg

<svg xmlns="http://www.w3.org/2000/svg" width="50" height="50" viewBox="0 0 50 50"><path d="M25 48.1q-.7 0-1.1-.6L7.8 29.4q-.3-.2-.7-.7-.5-.6-1.4-2-1-1.4-1.8-2.9t-1.4-3.7Q1.9 18 1.9 16q0-6.6 3.3-10.4 3.3-3.7 9-3.7 1.6 0 3.3.7 1.7.6 3.1 1.7Q22 5.4 23 6.4q1.1.9 2 2 .9-1.1 2-2 1-1 2.4-2.1t3.1-1.7q1.7-.7 3.3-.7 5.7 0 9 3.7 3.3 3.8 3.3 10.4 0 6.6-5.9 13.5l-16.1 18q-.4.6-1.1.6z"/></svg>

<svg xmlns="http://www.w3.org/2000/svg" width="50" height="50" viewBox="0 0 50 50"><path d="M25 48.1Q24.3 48.1 23.9 47.5L7.8 29.4Q7.5 29.2 7.1 28.7 6.6 28.1 5.7 26.7 4.7 25.3 3.9 23.8 3.1 22.3 2.5 20.1 1.9 18 1.9 16 1.9 9.4 5.2 5.6 8.5 1.9 14.2 1.9 15.8 1.9 17.5 2.6 19.2 3.2 20.6 4.3 22 5.4 23 6.4 24.1 7.3 25 8.4 25.9 7.3 27 6.4 28 5.4 29.4 4.3 30.8 3.2 32.5 2.6 34.2 1.9 35.8 1.9 41.5 1.9 44.8 5.6 48.1 9.4 48.1 16 48.1 22.6 42.2 29.5L26.1 47.5Q25.7 48.1 25 48.1Z"/></svg>
